src/assets/images/prototype/produits-labellises/10-liquide.svg

<svg width="300" height="679" viewBox="0 0 300 679" fill="none" xmlns="http://www.w3.org/2000/svg">
<path d="M4.84181 159.554C12.827 127.192 84.1687 80.2268 118.841 60.7891L189.237 60.7891C219.532 81.9779 282.748 131.395 293.255 159.554C306.389 194.752 281.698 211.563 269.615 261.996C257.532 312.429 290.103 528.345 293.255 561.967C296.407 595.589 276.444 646.022 269.615 659.155C262.785 672.289 164.021 675.966 150.887 675.966C137.754 675.966 33.2104 667.561 21.6528 659.155C10.0952 650.75 14.8236 637.616 4.84181 561.967C-5.13994 486.317 28.4823 357.608 33.2104 291.94C37.9384 226.272 -5.13972 200.005 4.84181 159.554Z" fill="white" stroke="#81EC40" stroke-width="5"/>
<path d="M117.791 31.8939V60.7878H187.136V31.8939L171.376 25.0644V3L134.602 3V25.0644L117.791 31.8939Z" fill="white" stroke="#81EC40" stroke-width="5"/>
</svg>

<svg width="300" height="679" fill="none" xmlns="http://www.w3.org/2000/svg"><path d="M4.842 159.554c7.985-32.362 79.327-79.327 113.999-98.765h70.396c30.295 21.189 93.511 70.606 104.018 98.765 13.134 35.198-11.557 52.009-23.64 102.442-12.083 50.433 20.488 266.349 23.64 299.971 3.152 33.622-16.811 84.055-23.64 97.188-6.83 13.134-105.594 16.811-118.728 16.811-13.133 0-117.677-8.405-129.234-16.811-11.558-8.405-6.83-21.539-16.811-97.188-9.982-75.65 23.64-204.359 28.368-270.027 4.728-65.668-38.35-91.935-28.368-132.386zm112.949-127.66v28.894h69.345V31.894l-15.76-6.83V3h-36.774v22.064l-16.811 6.83z" fill="#fff" stroke="#81EC40" stroke-width="5"/></svg>
